wp-content/plugins/google-analytics-for-wordpress/lite/assets/vue/img/icon-wpforms.svg

<svg width="30" height="23" viewBox="0 0 30 23" fill="none" xmlns="http://www.w3.org/2000/svg">
	<g clip-path="url(#clip0)">
		<path
			d="M3.47339 14.2475C5.09329 14.4664 6.50888 14.1015 7.66178 13.0654L9.58815 13.1675L8.5374 16.2614C7.36991 18.1148 5.67704 18.5088 3.94039 18.3921L3.47339 14.2475Z"
			fill="#7EAABA"/>
		<path
			d="M4.18848 14.9479L4.50954 17.7791C5.95431 17.7645 7.10722 17.2975 7.96825 15.9841L8.72712 13.7659L7.88068 13.7221C6.80075 14.6123 5.54569 14.9917 4.18848 14.9479Z"
			fill="#D3E8EF"/>
		<path
			d="M4.18848 14.9479L4.37819 16.6262C6.36294 16.3927 7.90987 15.5755 8.71252 13.7659L7.86609 13.7221C6.78616 14.6123 5.54569 14.9917 4.18848 14.9479Z"
			fill="white"/>
		<path
			d="M3.94032 11.8249C5.74994 11.8249 7.2239 13.2989 7.2239 15.1085C7.2239 16.9181 5.74994 18.3921 3.94032 18.3921C2.1307 18.3921 0.656738 16.9327 0.656738 15.1085C0.656738 13.2989 2.1307 11.8249 3.94032 11.8249Z"
			fill="#7EAABA"/>
		<path
			d="M3.94034 12.467C2.48097 12.467 1.31348 13.6491 1.31348 15.0939C1.31348 16.5533 2.49557 17.7208 3.94034 17.7208C5.39971 17.7208 6.56721 16.5387 6.56721 15.0939C6.56721 13.6345 5.38512 12.467 3.94034 12.467Z"
			fill="#D3E8EF"/>
		<path
			d="M3.94039 12.467C3.05017 12.467 2.24752 12.9049 1.78052 13.5908C1.86808 14.9626 3.02098 16.0571 4.40738 16.0571C5.2976 16.0571 6.10025 15.6193 6.56725 14.9334C6.47969 13.5616 5.34138 12.467 3.94039 12.467Z"
			fill="white"/>
		<path
			d="M3.60457 12.3065C4.96179 12.3065 6.05631 13.401 6.05631 14.7582C6.05631 16.1155 4.96179 17.21 3.60457 17.21C2.24736 17.21 1.15283 16.1009 1.15283 14.7437C1.15283 13.401 2.24736 12.3065 3.60457 12.3065Z"
			fill="#7EAABA"/>
		<path
			d="M3.42947 11.6498C4.78668 11.6498 5.8958 12.7589 5.8958 14.1015C5.8958 15.4587 4.78668 16.5679 3.42947 16.5679C2.07226 16.5679 0.963135 15.4587 0.963135 14.1015C0.963135 12.7443 2.07226 11.6498 3.42947 11.6498Z"
			fill="#7F3E13"/>
		<path
			d="M3.66308 12.5838C2.58314 12.5838 1.70752 13.4594 1.70752 14.5393C1.70752 15.6193 2.58314 16.4949 3.66308 16.4949C4.74301 16.4949 5.61863 15.6193 5.61863 14.5393C5.61863 13.4594 4.74301 12.5838 3.66308 12.5838Z"
			fill="#B85A1B"/>
		<path
			d="M2.18903 9.66503C2.23281 8.29323 4.27593 8.20566 4.3343 9.66503C4.93265 8.65807 6.81523 9.21263 6.23148 10.7887C6.26067 10.9201 6.28986 11.0368 6.30445 11.1682C7.32601 11.2266 7.66167 12.8173 6.26067 13.3135C6.14392 13.7513 5.9542 14.1307 5.70611 14.4372C4.50943 15.4733 4.1154 14.6269 3.47328 13.9264C2.84575 13.941 1.13828 13.5032 1.61988 15.1085C0.525348 14.408 -0.175149 12.9924 0.350224 10.9201C-0.379461 9.24182 1.5615 8.61429 2.18903 9.66503Z"
			fill="#7F3E13"/>
		<path
			d="M1.00699 11.1536C0.758895 12.1606 0.744302 13.2989 1.45939 14.1161C2.46636 15.269 4.50948 15.2106 5.29754 13.7659C5.72075 12.9778 5.69157 12 5.51644 11.139C4.01329 10.8179 2.49555 10.8763 1.00699 11.1536Z"
			fill="#B85A1B"/>
		<path
			d="M1.00699 11.1536C0.758895 12.1606 0.744302 13.2989 1.45939 14.1161C1.92639 14.6415 2.58311 14.9042 3.26901 14.9188V10.9201C2.51014 10.9201 1.76586 11.0077 1.00699 11.1536Z"
			fill="#E1762F"/>
		<path
			d="M1.9994 11.9271C1.85347 12.4816 1.85347 13.1237 2.26209 13.5762C2.81665 14.2183 3.95496 14.1891 4.39277 13.3718C4.62627 12.934 4.61168 12.3941 4.50952 11.9125C3.67768 11.7373 2.83125 11.7665 1.9994 11.9271Z"
			fill="#7F3E13"/>
		<path
			d="M3.25439 10.3801C3.56086 10.3801 3.82355 10.1174 3.82355 9.81098C3.82355 9.50451 3.56086 9.24182 3.25439 9.24182V10.3801ZM5.31211 9.66504C5.61857 9.66504 5.88126 9.92772 5.88126 10.2342C5.88126 10.5407 5.61857 10.8033 5.31211 10.8033C5.00564 10.8033 4.74295 10.5407 4.74295 10.2342C4.74295 9.91313 5.00564 9.66504 5.31211 9.66504Z"
			fill="#B85A1B"/>
		<path
			d="M1.31329 9.72341C1.61976 9.72341 1.88245 9.98609 1.88245 10.2926C1.88245 10.599 1.61976 10.8617 1.31329 10.8617C1.00683 10.8617 0.744141 10.599 0.744141 10.2926C0.744141 9.98609 0.992233 9.72341 1.31329 9.72341ZM3.25426 10.3801V9.25641C2.94779 9.25641 2.6851 9.5191 2.6851 9.82556C2.6851 10.132 2.94779 10.3947 3.25426 10.3801Z"
			fill="#E1762F"/>
		<path
			d="M5.95416 11.7227C6.26063 11.7227 6.52332 11.9854 6.52332 12.2919C6.52332 12.5984 6.26063 12.8611 5.95416 12.8611C5.6477 12.8611 5.38501 12.5984 5.38501 12.2919C5.38501 11.9708 5.6331 11.7227 5.95416 11.7227Z"
			fill="#B85A1B"/>
		<path
			d="M25.4807 18.4359C25.3493 16.7284 24.5759 15.5025 23.0581 14.8458L23.3646 13.6637L25.8163 13.007C27.947 13.6491 28.7934 15.0209 29.2021 16.7284L25.4807 18.4359Z"
			fill="#7EAABA"/>
		<path
			d="M25.9912 17.5019L28.4284 16.3635C28.0052 14.9334 27.2901 14.014 25.7869 13.6491L23.8752 14.1599L23.7876 14.481C24.9697 15.1669 25.6848 16.203 25.9912 17.5019Z"
			fill="white"/>
		<path
			d="M23.1165 18.7277C22.5619 17.0494 23.4667 15.2544 25.145 14.6999C26.8233 14.1453 28.6183 15.0501 29.1729 16.7284C29.7274 18.4067 28.8226 20.2017 27.1443 20.7562C25.4661 21.3108 23.671 20.406 23.1165 18.7277Z"
			fill="#7EAABA"/>
		<path
			d="M23.6418 18.5526C24.0942 19.939 25.5828 20.6833 26.9692 20.2309C28.3556 19.7785 29.0999 18.2899 28.6474 16.9035C28.195 15.5171 26.7065 14.7728 25.3201 15.2252C23.9337 15.6777 23.1894 17.1662 23.6418 18.5526Z"
			fill="#D3E8EF"/>
		<path
			d="M28.7497 17.3705C28.7351 17.21 28.6913 17.0641 28.6475 16.9035C28.1951 15.5171 26.7066 14.7728 25.3202 15.2252C24.8969 15.3712 24.5321 15.6047 24.2402 15.8966C24.2548 16.0571 24.2986 16.203 24.3424 16.3636C24.8094 17.75 26.2834 18.4942 27.6698 18.0418C28.1076 17.9105 28.4724 17.6624 28.7497 17.3705Z"
			fill="white"/>
		<path
			d="M22.518 19.545C21.9926 17.9689 22.8537 16.2614 24.4298 15.7506C26.0059 15.2252 27.7134 16.0863 28.2241 17.6624C28.7495 19.2385 27.8885 20.946 26.3124 21.4568C24.7362 21.9821 23.0288 21.1211 22.518 19.545Z"
			fill="#7F3E13"/>
		<path
			d="M23.1309 19.3553C22.7223 18.1148 23.3936 16.7722 24.6341 16.3635C25.8745 15.9549 27.2171 16.6262 27.6258 17.8667C28.0344 19.1072 27.3631 20.4498 26.1226 20.8584C24.8676 21.267 23.5395 20.5957 23.1309 19.3553Z"
			fill="#B85A1B"/>
		<path
			d="M23.0288 18.2315C23.1747 17.3851 23.7585 16.6408 24.6341 16.349C25.8746 15.9403 27.2172 16.6116 27.6258 17.8521C27.6842 18.0418 27.728 18.2461 27.7426 18.4359C26.2102 19.4136 24.2109 19.2093 23.0288 18.2315Z"
			fill="#E1762F"/>
		<path
			d="M12.1127 0.208328C13.3094 0.208328 14.2872 1.24448 14.2872 2.49954C14.2872 3.76919 13.324 4.79075 12.1127 4.79075C10.916 4.79075 9.93823 3.7546 9.93823 2.49954C9.93823 1.24448 10.916 0.208328 12.1127 0.208328Z"
			fill="#7F3E13"/>
		<path
			d="M12.1127 0.835861C11.2224 0.835861 10.5803 1.62392 10.5803 2.49954C10.5803 3.36057 11.2224 4.16322 12.1127 4.16322C13.0029 4.16322 13.645 3.37516 13.645 2.49954C13.645 1.65311 13.0029 0.835861 12.1127 0.835861Z"
			fill="#B85A1B"/>
		<path
			d="M12.1128 1.47798C11.5583 1.47798 11.208 1.98876 11.208 2.51413C11.208 3.02491 11.5729 3.55029 12.1128 3.55029C12.6674 3.55029 13.0176 3.03951 13.0176 2.51413C13.0176 2.00335 12.6528 1.47798 12.1128 1.47798Z"
			fill="#63300F"/>
		<path
			d="M21.3361 0.208328C22.5328 0.208328 23.5105 1.24448 23.5105 2.49954C23.5105 3.76919 22.5474 4.79075 21.3361 4.79075C20.1394 4.79075 19.1616 3.7546 19.1616 2.49954C19.1616 1.24448 20.1394 0.208328 21.3361 0.208328Z"
			fill="#7F3E13"/>
		<path
			d="M21.3361 0.835861C20.4458 0.835861 19.8037 1.62392 19.8037 2.49954C19.8037 3.36057 20.4458 4.16322 21.3361 4.16322C22.2263 4.16322 22.8684 3.37516 22.8684 2.49954C22.8684 1.65311 22.2263 0.835861 21.3361 0.835861Z"
			fill="#B85A1B"/>
		<path
			d="M21.336 1.47798C20.7814 1.47798 20.4312 1.98876 20.4312 2.51413C20.4312 3.02491 20.796 3.55029 21.336 3.55029C21.8905 3.55029 22.2408 3.03951 22.2408 2.51413C22.2408 2.00335 21.8759 1.47798 21.336 1.47798Z"
			fill="#4F2800"/>
		<path
			d="M17.6 1.28825C17.9794 1.28825 18.2859 1.59472 18.2859 1.97416C18.2859 2.35359 17.9794 2.66006 17.6 2.66006C17.2206 2.66006 16.9141 2.35359 16.9141 1.97416C16.9141 1.59472 17.2206 1.28825 17.6 1.28825ZM15.8487 1.28825C16.2282 1.28825 16.5346 1.59472 16.5346 1.97416C16.5346 2.35359 16.2282 2.66006 15.8487 2.66006C15.4693 2.66006 15.1628 2.35359 15.1628 1.97416C15.1628 1.59472 15.4693 1.28825 15.8487 1.28825Z"
			fill="#7F3E13"/>
		<path
			d="M24.7362 4.14863V8.42458L24.78 8.43918C25.4075 8.68727 25.8015 9.25642 25.8015 9.92773V12.9924L16.7243 15.9841L7.64697 13.0654V9.92773C7.64697 9.25642 8.041 8.68727 8.66853 8.43918L8.71231 8.42458V4.13404C8.71231 1.18611 24.7362 1.18611 24.7362 4.14863Z"
			fill="#7F3E13"/>
		<path
			d="M9.4421 4.30915V8.92076L9.06267 9.06669C8.63945 9.22722 8.39136 9.62125 8.39136 10.0591V13.2989L16.739 15.9841L25.0866 13.2405V10.0591C25.0866 9.60666 24.8239 9.22722 24.4152 9.06669L24.0358 8.92076V4.30915C24.0212 2.12009 9.4567 2.12009 9.4421 4.30915Z"
			fill="#B85A1B"/>
		<path
			d="M9.4421 4.30915V8.92076L9.06267 9.06669C8.63945 9.22722 8.39136 9.62125 8.39136 10.0591V13.2989L16.739 15.9841V14.2329C13.8494 14.2475 10.9598 12.3503 11.7187 8.59969H16.739V2.67465C13.0905 2.67465 9.4421 3.22921 9.4421 4.30915Z"
			fill="#E1762F"/>
		<path d="M11.3248 7.62193H22.1679C23.7002 15.7652 9.66108 15.7068 11.3248 7.62193Z" fill="#E5895B"/>
		<path
			d="M11.85 8.26405C11.704 9.51911 11.9667 10.7304 12.9007 11.679C13.8931 12.6713 15.3816 13.0946 16.7534 13.08C18.0815 13.0654 19.4825 12.6568 20.4602 11.7228C21.438 10.7742 21.7445 9.5483 21.6132 8.26405H11.85Z"
			fill="#E5895B"/>
		<path d="M18.5486 12.0584C19.2783 13.007 21.4089 12.613 20.7668 10.6136L18.5486 12.0584Z" fill="#FAD395"/>
		<path d="M17.8772 11.8541C18.6944 12.9048 21.3505 12.2773 20.7376 10.0007L17.8772 11.8541Z" fill="#4F2800"/>
		<path
			d="M20.3289 10.1029C20.4894 10.0591 20.6646 10.1612 20.7083 10.3364C20.7521 10.5115 20.6646 10.6866 20.504 10.7304C20.3435 10.7742 20.1684 10.672 20.1246 10.4969C20.0808 10.3364 20.1684 10.1466 20.3289 10.1029ZM18.5923 11.3141C18.7528 11.2703 18.9133 11.3725 18.9717 11.5476C19.0155 11.7228 18.9279 11.8979 18.7674 11.9417C18.6068 11.9854 18.4463 11.8833 18.3879 11.7082C18.3442 11.533 18.4317 11.3579 18.5923 11.3141Z"
			fill="white"/>
		<path
			d="M19.6578 12.2627C20.2415 12.073 20.7377 11.606 20.8253 10.8617C20.3583 10.7888 19.541 11.4893 19.6578 12.2627Z"
			fill="#AD6151"/>
		<path d="M12.4338 7.62193H21.0295C22.2554 13.4448 11.1204 13.3864 12.4338 7.62193Z" fill="#FAD395"/>
		<path
			d="M16.7243 10.9347C16.7827 10.5845 16.914 10.2634 17.1329 9.97152C18.1691 9.81098 19.0593 9.02293 18.782 7.62193C18.1107 7.38843 17.4248 7.27168 16.7389 7.27168L16.3157 8.59971L16.7243 10.9347Z"
			fill="#4F2800"/>
		<path
			d="M16.7244 10.9347C16.6661 10.5845 16.5347 10.2634 16.3158 9.97152C15.2797 9.81098 14.3894 9.02293 14.6667 7.62193C15.338 7.38843 16.0239 7.27168 16.7098 7.27168L16.7244 10.9347Z"
			fill="#63300F"/>
		<path
			d="M15.2065 7.82624C16.2281 7.56355 17.235 7.56355 18.2566 7.82624C18.6798 8.89158 14.7395 8.87699 15.2065 7.82624Z"
			fill="#AD6151"/>
		<path
			d="M15.0899 4.86371C15.7174 4.86371 16.2428 5.37449 16.2428 6.01661C16.2428 6.64414 15.732 7.16951 15.0899 7.16951C14.4624 7.16951 13.937 6.65873 13.937 6.01661C13.937 5.38908 14.4478 4.86371 15.0899 4.86371Z"
			fill="white"/>
		<path
			d="M15.1774 5.27234C15.6444 5.27234 16.0385 5.65177 16.0385 6.13337C16.0385 6.60036 15.659 6.99439 15.1774 6.99439C14.7104 6.99439 14.3164 6.61496 14.3164 6.13337C14.3164 5.65177 14.6958 5.27234 15.1774 5.27234Z"
			fill="#1B1D23"/>
		<path
			d="M18.388 4.86371C17.7605 4.86371 17.2351 5.37449 17.2351 6.01661C17.2351 6.64414 17.7459 7.16951 18.388 7.16951C19.0155 7.16951 19.5409 6.65873 19.5409 6.01661C19.5409 5.38908 19.0301 4.86371 18.388 4.86371Z"
			fill="white"/>
		<path
			d="M18.3151 5.27234C17.8481 5.27234 17.4541 5.65177 17.4541 6.13337C17.4541 6.60036 17.8335 6.99439 18.3151 6.99439C18.7821 6.99439 19.1762 6.61496 19.1762 6.13337C19.1616 5.65177 18.7821 5.27234 18.3151 5.27234Z"
			fill="#1B1D23"/>
		<path
			d="M15.9218 4.49889C15.0024 4.32377 14.2289 4.4843 13.543 4.92211C13.2949 3.50652 15.6737 3.0833 15.9218 4.49889Z"
			fill="#63300F"/>
		<path
			d="M17.3228 3.78379C18.2422 3.60866 19.0156 3.76919 19.7015 4.207C19.9496 2.79142 17.5854 2.38279 17.3228 3.78379Z"
			fill="#4F2800"/>
		<path
			d="M25.7871 13.007V21.8508C25.7871 22.4346 25.3055 22.9307 24.7072 22.9307H8.7125C8.12875 22.9307 7.63257 22.4491 7.63257 21.8508V13.0946L16.7098 15.269L25.7871 13.007Z"
			fill="#7EAABA"/>
		<path
			d="M25.0719 13.9264L16.7243 15.9841L8.37671 13.9994V21.6611C8.37671 21.9675 8.61021 22.201 8.91668 22.201H24.5465C24.853 22.201 25.0865 21.9675 25.0865 21.6611L25.0719 13.9264Z"
			fill="#D3E8EF"/>
		<path
			d="M16.7244 15.9987L8.39136 13.9994V21.6611C8.39136 21.9675 8.62486 22.201 8.93132 22.201H16.739L16.7244 15.9987Z"
			fill="white"/>
		<path
			d="M16.7244 20.0995H23.7293V20.5665V21.0335H16.7244V20.0995ZM16.7244 18.1586H23.7293V18.6256V19.0926H16.7244V18.1586Z"
			fill="#036AAB"/>
		<path
			d="M16.7245 21.0481V20.0995H9.71948V20.5665V21.0335H16.7245V21.0481ZM9.71948 18.1586H16.7245V19.1072H9.71948V18.1586Z"
			fill="#0399ED"/>
		<path d="M12.5652 17.5456H13.4408V21.8362H12.5652V17.5456Z" fill="white"/>
		<path
			d="M10.0989 13.6637C12.3171 14.1891 14.5208 14.7291 16.7244 15.2544L14.3602 17.4873C12.8279 16.5825 11.3102 15.5901 10.0989 13.6637Z"
			fill="#7EAABA"/>
		<path
			d="M11.9668 14.8604C12.6381 15.5317 13.397 16.0571 14.258 16.5825L15.2504 15.6339C14.1704 15.3858 13.0613 15.1085 11.9668 14.8604Z"
			fill="white"/>
		<path
			d="M23.3499 13.6637C21.1317 14.1891 18.928 14.7291 16.7244 15.2544L19.0885 17.4873C20.6209 16.5825 22.1386 15.5901 23.3499 13.6637Z"
			fill="#7EAABA"/>
		<path
			d="M21.4818 14.8604C20.8105 15.5317 20.0516 16.0571 19.1906 16.5825L18.1982 15.6339C19.2928 15.3858 20.3873 15.1085 21.4818 14.8604Z"
			fill="white"/>
	</g>
	<defs>
		<clipPath id="clip0">
			<rect width="29.3333" height="22.7078" fill="white" transform="translate(0 0.208328)"/>
		</clipPath>
	</defs>
</svg>

<svg width="30" height="23" fill="none" xmlns="http://www.w3.org/2000/svg"><g clip-path="url(#clip0)"><path d="M3.473 14.248c1.62.218 3.036-.146 4.189-1.183l1.926.103-1.05 3.093C7.37 18.115 5.676 18.51 3.94 18.392l-.467-4.144z" fill="#7EAABA"/><path d="M4.188 14.948l.322 2.831c1.444-.014 2.597-.482 3.458-1.795l.76-2.218-.847-.044c-1.08.89-2.335 1.27-3.693 1.226z" fill="#D3E8EF"/><path d="M4.188 14.948l.19 1.678c1.985-.233 3.532-1.05 4.335-2.86l-.847-.044c-1.08.89-2.32 1.27-3.678 1.226z" fill="#fff"/><path d="M3.94 11.825a3.289 3.289 0 013.284 3.284 3.289 3.289 0 01-3.284 3.283 3.28 3.28 0 01-3.283-3.284 3.289 3.289 0 013.283-3.283z" fill="#7EAABA"/><path d="M3.94 12.467a2.625 2.625 0 00-2.627 2.627A2.625 2.625 0 003.94 17.72a2.625 2.625 0 002.627-2.627 2.625 2.625 0 00-2.627-2.627z" fill="#D3E8EF"/><path d="M3.94 12.467a2.61 2.61 0 00-2.16 1.124 2.645 2.645 0 002.627 2.466c.89 0 1.693-.438 2.16-1.124a2.635 2.635 0 00-2.627-2.466z" fill="#fff"/><path d="M3.605 12.306a2.448 2.448 0 012.451 2.452 2.448 2.448 0 01-2.451 2.452 2.46 2.46 0 01-2.452-2.466 2.445 2.445 0 012.452-2.438z" fill="#7EAABA"/><path d="M3.43 11.65c1.357 0 2.466 1.109 2.466 2.451a2.473 2.473 0 01-2.467 2.467A2.473 2.473 0 01.963 14.1a2.46 2.46 0 012.467-2.45z" fill="#7F3E13"/><path d="M3.663 12.584a1.956 1.956 0 100 3.911 1.956 1.956 0 000-3.911z" fill="#B85A1B"/><path d="M2.189 9.665c.044-1.372 2.087-1.46 2.145 0 .599-1.007 2.481-.452 1.897 1.124.03.131.059.248.073.38 1.022.058 1.358 1.648-.043 2.144a3.005 3.005 0 01-.555 1.124c-1.197 1.036-1.59.19-2.233-.51-.627.014-2.335-.424-1.853 1.181-1.095-.7-1.795-2.116-1.27-4.188-.73-1.678 1.212-2.306 1.839-1.255z" fill="#7F3E13"/><path d="M1.007 11.154c-.248 1.007-.263 2.145.452 2.962 1.007 1.153 3.05 1.095 3.839-.35.423-.788.394-1.766.218-2.627-1.503-.321-3.02-.263-4.509.015z" fill="#B85A1B"/><path d="M1.007 11.154c-.248 1.007-.263 2.145.452 2.962.467.526 1.124.788 1.81.803V10.92c-.759 0-1.503.088-2.262.234z" fill="#E1762F"/><path d="M2 11.927c-.147.555-.147 1.197.262 1.65.555.641 1.693.612 2.13-.205.234-.438.22-.978.118-1.46-.832-.175-1.679-.146-2.51.015z" fill="#7F3E13"/><path d="M3.254 10.38a.58.58 0 00.57-.569.58.58 0 00-.57-.57v1.14zm2.058-.715a.58.58 0 01.57.57.58.58 0 01-.57.568.58.58 0 01-.569-.569.57.57 0 01.57-.569z" fill="#B85A1B"/><path d="M1.313 9.723a.58.58 0 01.57.57.58.58 0 01-.57.569.58.58 0 01-.569-.57.57.57 0 01.57-.569zm1.941.657V9.256a.58.58 0 00-.569.57c0 .306.263.569.57.554z" fill="#E1762F"/><path d="M5.954 11.723a.58.58 0 01.57.569.58.58 0 01-.57.57.58.58 0 01-.569-.57.56.56 0 01.57-.57z" fill="#B85A1B"/><path d="M25.48 18.436c-.13-1.708-.904-2.934-2.422-3.59l.307-1.182 2.451-.657c2.131.642 2.977 2.014 3.386 3.721l-3.721 1.708z" fill="#7EAABA"/><path d="M25.991 17.502l2.437-1.139c-.423-1.43-1.138-2.349-2.641-2.714l-1.912.51-.087.322c1.182.686 1.897 1.722 2.203 3.02z" fill="#fff"/><path d="M23.116 18.728a3.18 3.18 0 012.029-4.028 3.18 3.18 0 014.028 2.028 3.18 3.18 0 01-2.029 4.028 3.18 3.18 0 01-4.027-2.028z" fill="#7EAABA"/><path d="M23.642 18.553a2.631 2.631 0 003.327 1.678 2.631 2.631 0 001.678-3.328 2.631 2.631 0 00-3.327-1.678 2.631 2.631 0 00-1.678 3.328z" fill="#D3E8EF"/><path d="M28.75 17.37c-.015-.16-.059-.306-.102-.466a2.631 2.631 0 00-3.328-1.679c-.423.146-.788.38-1.08.672.015.16.059.306.102.467a2.637 2.637 0 003.328 1.678c.438-.132.802-.38 1.08-.672z" fill="#fff"/><path d="M22.518 19.545a2.996 2.996 0 011.912-3.794 2.996 2.996 0 013.794 1.911 2.996 2.996 0 01-1.912 3.795 2.996 2.996 0 01-3.794-1.912z" fill="#7F3E13"/><path d="M23.13 19.355a2.37 2.37 0 011.504-2.992 2.37 2.37 0 012.992 1.504 2.37 2.37 0 01-1.503 2.991 2.363 2.363 0 01-2.992-1.503z" fill="#B85A1B"/><path d="M23.029 18.232a2.4 2.4 0 011.605-1.883 2.37 2.37 0 013.109 2.087c-1.533.978-3.532.773-4.714-.204z" fill="#E1762F"/><path d="M12.113.208c1.196 0 2.174 1.036 2.174 2.292 0 1.27-.963 2.29-2.174 2.29-1.197 0-2.175-1.035-2.175-2.29 0-1.256.978-2.292 2.175-2.292z" fill="#7F3E13"/><path d="M12.113.836c-.89 0-1.533.788-1.533 1.664 0 .86.642 1.663 1.533 1.663.89 0 1.532-.788 1.532-1.663 0-.847-.642-1.664-1.532-1.664z" fill="#B85A1B"/><path d="M12.113 1.478c-.555 0-.905.51-.905 1.036 0 .51.365 1.036.905 1.036.554 0 .905-.51.905-1.036 0-.51-.365-1.036-.905-1.036z" fill="#63300F"/><path d="M21.336.208c1.197 0 2.175 1.036 2.175 2.292 0 1.27-.964 2.29-2.175 2.29-1.197 0-2.174-1.035-2.174-2.29 0-1.256.977-2.292 2.174-2.292z" fill="#7F3E13"/><path d="M21.336.836c-.89 0-1.532.788-1.532 1.664 0 .86.642 1.663 1.532 1.663s1.532-.788 1.532-1.663c0-.847-.642-1.664-1.532-1.664z" fill="#B85A1B"/><path d="M21.336 1.478c-.555 0-.905.51-.905 1.036 0 .51.365 1.036.905 1.036.555 0 .905-.51.905-1.036 0-.51-.365-1.036-.905-1.036z" fill="#4F2800"/><path d="M17.6 1.288a.685.685 0 11.002 1.37.685.685 0 01-.002-1.37zm-1.751 0a.685.685 0 11.001 1.37.685.685 0 01-.001-1.37z" fill="#7F3E13"/><path d="M24.736 4.149v4.276l.044.014a1.577 1.577 0 011.021 1.489v3.064l-9.077 2.992-9.077-2.919V9.928c0-.672.394-1.24 1.022-1.489l.043-.014V4.134c0-2.948 16.024-2.948 16.024.015z" fill="#7F3E13"/><path d="M9.442 4.31v4.61l-.38.147a1.04 1.04 0 00-.67.992v3.24l8.347 2.685 8.348-2.743v-3.182c0-.452-.263-.832-.672-.992l-.38-.146V4.309c-.014-2.189-14.578-2.189-14.593 0z" fill="#B85A1B"/><path d="M9.442 4.31v4.61l-.38.147a1.04 1.04 0 00-.67.992v3.24l8.347 2.685v-1.751c-2.89.014-5.78-1.883-5.02-5.633h5.02V2.675c-3.649 0-7.297.554-7.297 1.634z" fill="#E1762F"/><path d="M11.325 7.622h10.843c1.532 8.143-12.507 8.085-10.843 0z" fill="#E5895B"/><path d="M11.85 8.264c-.146 1.255.117 2.466 1.05 3.415.993.992 2.482 1.416 3.853 1.401 1.328-.015 2.73-.423 3.707-1.357.978-.949 1.284-2.175 1.153-3.459H11.85z" fill="#E5895B"/><path d="M18.549 12.058c.73.949 2.86.555 2.218-1.444l-2.218 1.444z" fill="#FAD395"/><path d="M17.877 11.854c.817 1.05 3.474.423 2.86-1.853l-2.86 1.853z" fill="#4F2800"/><path d="M20.329 10.103a.313.313 0 01.38.233c.043.175-.044.35-.205.394a.313.313 0 01-.38-.233c-.043-.16.044-.35.205-.394zm-1.737 1.211c.16-.044.321.059.38.234.043.175-.044.35-.205.394-.16.043-.32-.059-.38-.234-.043-.175.045-.35.205-.394z" fill="#fff"/><path d="M19.658 12.263c.583-.19 1.08-.657 1.167-1.401-.467-.073-1.284.627-1.167 1.4z" fill="#AD6151"/><path d="M12.434 7.622h8.595c1.226 5.823-9.909 5.764-8.595 0z" fill="#FAD395"/><path d="M16.724 10.935c.059-.35.19-.672.409-.963 1.036-.161 1.926-.95 1.649-2.35a6.2 6.2 0 00-2.043-.35L16.316 8.6l.408 2.335z" fill="#4F2800"/><path d="M16.724 10.935a2.17 2.17 0 00-.408-.963c-1.036-.161-1.927-.95-1.65-2.35a6.2 6.2 0 012.044-.35l.014 3.663z" fill="#63300F"/><path d="M15.207 7.826a6.001 6.001 0 013.05 0c.423 1.066-3.518 1.051-3.05 0z" fill="#AD6151"/><path d="M15.09 4.864c.627 0 1.153.51 1.153 1.153 0 .627-.511 1.153-1.153 1.153a1.155 1.155 0 01-1.153-1.153c0-.628.51-1.153 1.153-1.153z" fill="#fff"/><path d="M15.177 5.272a.862.862 0 01.001 1.722.863.863 0 01-.862-.86c0-.482.38-.862.861-.862z" fill="#1B1D23"/><path d="M18.388 4.864c-.628 0-1.153.51-1.153 1.153 0 .627.51 1.153 1.153 1.153.627 0 1.153-.511 1.153-1.153 0-.628-.51-1.153-1.153-1.153z" fill="#fff"/><path d="M18.315 5.272a.863.863 0 00-.86.861c0 .467.379.861.86.861a.862.862 0 00.861-.86.872.872 0 00-.86-.862z" fill="#1B1D23"/><path d="M15.922 4.499c-.92-.175-1.693-.015-2.379.423-.248-1.415 2.13-1.839 2.379-.423z" fill="#63300F"/><path d="M17.323 3.784c.92-.175 1.693-.015 2.378.423.249-1.416-2.116-1.824-2.378-.423z" fill="#4F2800"/><path d="M25.787 13.007v8.844c0 .584-.482 1.08-1.08 1.08H8.712c-.583 0-1.08-.482-1.08-1.08v-8.756l9.078 2.174 9.077-2.262z" fill="#7EAABA"/><path d="M25.072 13.926l-8.348 2.058L8.377 14v7.662c0 .306.233.54.54.54h15.63a.53.53 0 00.54-.54l-.015-7.735z" fill="#D3E8EF"/><path d="M16.724 15.999l-8.333-2v7.662c0 .306.234.54.54.54h7.808l-.015-6.202z" fill="#fff"/><path d="M16.724 20.1h7.005v.934h-7.005V20.1zm0-1.941h7.005v.934h-7.005v-.934z" fill="#036AAB"/><path d="M16.724 21.048V20.1H9.72v.934h7.005v.014zm-7.005-2.89h7.005v.95H9.72v-.95z" fill="#0399ED"/><path d="M12.565 17.546h.876v4.29h-.876v-4.29z" fill="#fff"/><path d="M10.099 13.664c2.218.525 4.422 1.065 6.625 1.59l-2.364 2.233c-1.532-.904-3.05-1.897-4.261-3.823z" fill="#7EAABA"/><path d="M11.967 14.86c.671.672 1.43 1.197 2.291 1.723l.992-.95c-1.08-.247-2.189-.524-3.283-.773z" fill="#fff"/><path d="M23.35 13.664c-2.218.525-4.422 1.065-6.626 1.59l2.364 2.233c1.533-.904 3.05-1.897 4.262-3.823z" fill="#7EAABA"/><path d="M21.482 14.86c-.671.672-1.43 1.197-2.291 1.723l-.993-.95c1.095-.247 2.19-.524 3.284-.773z" fill="#fff"/></g><defs><clipPath id="clip0"><path fill="#fff" transform="translate(0 .208)" d="M0 0h29.333v22.708H0z"/></clipPath></defs></svg>
